Numix/16/status/indicator-keyboard-Sk-3.svg

<?xml version="1.0" encoding="UTF-8" standalone="no"?>
<svg
   xmlns:dc="http://purl.org/dc/elements/1.1/"
   xmlns:cc="http://creativecommons.org/ns#"
   xmlns:rdf="http://www.w3.org/1999/02/22-rdf-syntax-ns#"
   xmlns:svg="http://www.w3.org/2000/svg"
   xmlns="http://www.w3.org/2000/svg"
   xmlns:sodipodi="http://sodipodi.sourceforge.net/DTD/sodipodi-0.dtd"
   xmlns:inkscape="http://www.inkscape.org/namespaces/inkscape"
   viewBox="0 0 16 16"
   id="svg2"
   version="1.1"
   inkscape:version="0.91 r13725"
   sodipodi:docname="indicator-keyboard-Sk-3.svg">
  <metadata
     id="metadata14">
    <rdf:RDF>
      <cc:Work
         rdf:about="">
        <dc:format>image/svg+xml</dc:format>
        <dc:type
           rdf:resource="http://purl.org/dc/dcmitype/StillImage" />
      </cc:Work>
    </rdf:RDF>
  </metadata>
  <defs
     id="defs12" />
  <sodipodi:namedview
     pagecolor="#ffffff"
     bordercolor="#666666"
     borderopacity="1"
     objecttolerance="10"
     gridtolerance="10"
     guidetolerance="10"
     inkscape:pageopacity="0"
     inkscape:pageshadow="2"
     inkscape:window-width="640"
     inkscape:window-height="480"
     id="namedview10"
     showgrid="false"
     inkscape:zoom="14.75"
     inkscape:cx="8"
     inkscape:cy="8"
     inkscape:window-x="65"
     inkscape:window-y="24"
     inkscape:window-maximized="0"
     inkscape:current-layer="svg2" />
  <path
     style="fill:#ececec;fill-opacity:1"
     d="M 1.5996094 0 C 0.71320937 2.9605947e-16 0 0.71320937 0 1.5996094 L 0 14.400391 C 2.9605947e-16 15.286791 0.71320937 16 1.5996094 16 L 14.400391 16 C 15.286791 16 16 15.286791 16 14.400391 L 16 1.5996094 C 16 0.71320937 15.286791 0 14.400391 0 L 1.5996094 0 z M 7.9023438 4.1113281 L 7.9023438 8.5390625 C 8.0523438 8.3950625 8.22025 8.2309219 8.40625 8.0449219 C 8.59225 7.8589219 8.7768906 7.6705156 8.9628906 7.4785156 C 9.1548906 7.2865156 9.3359063 7.0999219 9.5039062 6.9199219 C 9.6719063 6.7399219 9.8155469 6.5813594 9.9355469 6.4433594 L 10.636719 6.4433594 C 10.498719 6.5873594 10.343922 6.7496875 10.169922 6.9296875 C 9.9959221 7.1096875 9.8130938 7.2980937 9.6210938 7.4960938 C 9.4350938 7.6880937 9.2485 7.8765 9.0625 8.0625 L 8.5585938 8.5664062 C 8.7445938 8.6924063 8.9423437 8.8547344 9.1523438 9.0527344 C 9.3683437 9.2507344 9.5792031 9.4671719 9.7832031 9.7011719 C 9.9932029 9.9291721 10.187187 10.166109 10.367188 10.412109 C 10.553187 10.652109 10.709938 10.879703 10.835938 11.095703 L 10.142578 11.095703 C 9.9985783 10.855703 9.8344375 10.622531 9.6484375 10.394531 C 9.4684375 10.160531 9.2762656 9.9403283 9.0722656 9.7363281 C 8.8742656 9.5323281 8.67275 9.3476875 8.46875 9.1796875 C 8.27075 9.0116875 8.0823438 8.8698594 7.9023438 8.7558594 L 7.9023438 11.095703 L 7.3164062 11.095703 L 7.3164062 4.2207031 L 7.9023438 4.1113281 z M 4.3691406 4.7246094 C 4.5371406 4.7246094 4.7012813 4.7357656 4.8632812 4.7597656 C 5.0252812 4.7837656 5.1745 4.817375 5.3125 4.859375 C 5.4565 4.895375 5.5871719 4.936375 5.7011719 4.984375 C 5.8211719 5.032375 5.9200469 5.0846719 5.9980469 5.1386719 L 5.78125 5.6503906 C 5.60725 5.5303906 5.3945781 5.4352813 5.1425781 5.3632812 C 4.8965781 5.2912813 4.6297969 5.2558594 4.3417969 5.2558594 C 4.1437969 5.2558594 3.9609687 5.2763594 3.7929688 5.3183594 C 3.6309687 5.3543594 3.4891406 5.4178125 3.3691406 5.5078125 C 3.2491406 5.5918125 3.1540312 5.6980781 3.0820312 5.8300781 C 3.0160312 5.9620781 2.9824219 6.1225938 2.9824219 6.3085938 C 2.9824219 6.5005938 3.0178438 6.6629219 3.0898438 6.7949219 C 3.1618438 6.9269219 3.2607187 7.0407187 3.3867188 7.1367188 C 3.5187187 7.2327187 3.6717031 7.3184844 3.8457031 7.3964844 C 4.0197031 7.4744844 4.2100625 7.556625 4.4140625 7.640625 C 4.6600625 7.742625 4.8894687 7.8433125 5.1054688 7.9453125 C 5.3274688 8.0473125 5.5196406 8.1686406 5.6816406 8.3066406 C 5.8436406 8.4446406 5.9743125 8.6125469 6.0703125 8.8105469 C 6.1663125 9.0085469 6.2128906 9.2510625 6.2128906 9.5390625 C 6.2128906 10.103063 6.0151406 10.526594 5.6191406 10.808594 C 5.2291406 11.090594 4.6993438 11.230469 4.0273438 11.230469 C 3.7873437 11.230469 3.5671406 11.215547 3.3691406 11.185547 C 3.1711406 11.155547 2.9938906 11.120125 2.8378906 11.078125 C 2.6818906 11.030125 2.5513594 10.981594 2.4433594 10.933594 C 2.3353594 10.885594 2.2494531 10.844594 2.1894531 10.808594 L 2.3886719 10.277344 C 2.4486719 10.313344 2.5288594 10.354344 2.6308594 10.402344 C 2.7328594 10.450344 2.8541875 10.498875 2.9921875 10.546875 C 3.1301875 10.588875 3.2849844 10.624297 3.4589844 10.654297 C 3.6329844 10.684297 3.8251563 10.699219 4.0351562 10.699219 C 4.5211563 10.699219 4.8999219 10.613453 5.1699219 10.439453 C 5.4399219 10.259453 5.5742188 9.970219 5.5742188 9.5742188 C 5.5742188 9.3462187 5.5294531 9.1578125 5.4394531 9.0078125 C 5.3554531 8.8518125 5.2416562 8.7230938 5.0976562 8.6210938 C 4.9536562 8.5130937 4.7875625 8.4235625 4.6015625 8.3515625 C 4.4155625 8.2735625 4.2215781 8.1914219 4.0175781 8.1074219 C 3.7595781 8.0054219 3.5282187 7.9009687 3.3242188 7.7929688 C 3.1202188 7.6849688 2.9467344 7.5655937 2.8027344 7.4335938 C 2.6587344 7.2955937 2.54675 7.1388438 2.46875 6.9648438 C 2.39675 6.7908437 2.3613281 6.5875156 2.3613281 6.3535156 C 2.3613281 5.8195156 2.5385781 5.4146719 2.8925781 5.1386719 C 3.2465781 4.8626719 3.7391406 4.7246094 4.3691406 4.7246094 z M 12.441406 8.7539062 C 12.644206 8.7539062 12.816638 8.7793781 12.960938 8.8300781 C 13.109137 8.8807781 13.232578 8.953275 13.330078 9.046875 C 13.427578 9.136575 13.500075 9.2463 13.546875 9.375 C 13.593675 9.4997999 13.617188 9.6350031 13.617188 9.7832031 C 13.617188 10.021103 13.552528 10.217041 13.423828 10.369141 C 13.299028 10.517341 13.1364 10.625106 12.9375 10.691406 C 13.0467 10.718706 13.152506 10.759859 13.253906 10.818359 C 13.359206 10.872959 13.453256 10.945456 13.535156 11.035156 C 13.617056 11.120956 13.683675 11.226762 13.734375 11.351562 C 13.785075 11.476363 13.810547 11.623316 13.810547 11.791016 C 13.810547 11.962616 13.779197 12.119372 13.716797 12.263672 C 13.658297 12.407972 13.568166 12.535331 13.447266 12.644531 C 13.330266 12.749831 13.179394 12.834084 12.996094 12.896484 C 12.812794 12.954984 12.599216 12.984375 12.353516 12.984375 C 12.224816 12.984375 12.105294 12.974578 11.996094 12.955078 C 11.890794 12.939478 11.796744 12.919884 11.714844 12.896484 C 11.632944 12.873084 11.562406 12.849572 11.503906 12.826172 C 11.449306 12.802772 11.408159 12.783178 11.380859 12.767578 L 11.480469 12.427734 C 11.503869 12.443334 11.543056 12.462928 11.597656 12.486328 C 11.652256 12.509728 11.716916 12.533241 11.791016 12.556641 C 11.869016 12.576141 11.955228 12.593775 12.048828 12.609375 C 12.146328 12.624975 12.252134 12.632813 12.365234 12.632812 C 12.735734 12.632812 13.000256 12.556397 13.160156 12.404297 C 13.320056 12.248297 13.400391 12.040597 13.400391 11.779297 C 13.400391 11.607697 13.367081 11.464662 13.300781 11.351562 C 13.238381 11.238462 13.150209 11.148331 13.037109 11.082031 C 12.927909 11.011831 12.798591 10.962847 12.650391 10.935547 C 12.506091 10.904347 12.353253 10.888672 12.189453 10.888672 L 12.130859 10.888672 L 12.130859 10.574219 L 12.265625 10.574219 C 12.370925 10.574219 12.478691 10.564422 12.587891 10.544922 C 12.700991 10.521522 12.800925 10.480375 12.890625 10.421875 C 12.984225 10.363375 13.060641 10.285 13.119141 10.1875 C 13.181541 10.09 13.212891 9.9646001 13.212891 9.8125 C 13.212891 9.6838 13.191337 9.5760281 13.148438 9.4863281 C 13.105537 9.3927281 13.046756 9.3182719 12.972656 9.2636719 C 12.902456 9.2090719 12.818203 9.1698844 12.720703 9.1464844 C 12.627103 9.1191844 12.529128 9.1054687 12.423828 9.1054688 C 12.213228 9.1054688 12.048641 9.1348594 11.931641 9.1933594 C 11.814641 9.2518594 11.718631 9.3067219 11.644531 9.3574219 L 11.480469 9.0585938 C 11.519469 9.0312937 11.568453 8.9999437 11.626953 8.9648438 C 11.689353 8.9297437 11.76185 8.8964344 11.84375 8.8652344 C 11.92565 8.8340344 12.015781 8.8085625 12.113281 8.7890625 C 12.214681 8.7656625 12.324406 8.7539062 12.441406 8.7539062 z "
     id="path4" />
</svg>

<svg xmlns="http://www.w3.org/2000/svg" viewBox="0 0 16 16">
 <path d="m 1.6 0 c -0.886 0 -1.6 0.713 -1.6 1.6 l 0 12.801 c 0 0.886 0.713 1.6 1.6 1.6 l 12.801 0 c 0.886 0 1.6 -0.713 1.6 -1.6 l 0 -12.801 c 0 -0.886 -0.713 -1.6 -1.6 -1.6 l -12.801 0 z m 6.303 4.111 l 0 4.428 c 0.15 -0.144 0.318 -0.308 0.504 -0.494 c 0.186 -0.186 0.371 -0.374 0.557 -0.566 c 0.192 -0.192 0.373 -0.379 0.541 -0.559 c 0.168 -0.18 0.312 -0.339 0.432 -0.477 l 0.701 0 c -0.138 0.144 -0.293 0.306 -0.467 0.486 c -0.174 0.18 -0.357 0.368 -0.549 0.566 c -0.186 0.192 -0.373 0.38 -0.559 0.566 l -0.504 0.504 c 0.186 0.126 0.384 0.288 0.594 0.486 c 0.216 0.198 0.427 0.414 0.631 0.648 c 0.21 0.228 0.404 0.465 0.584 0.711 c 0.186 0.24 0.343 0.468 0.469 0.684 l -0.693 0 c -0.144 -0.24 -0.308 -0.473 -0.494 -0.701 c -0.18 -0.234 -0.372 -0.454 -0.576 -0.658 c -0.198 -0.204 -0.4 -0.389 -0.604 -0.557 c -0.198 -0.168 -0.386 -0.31 -0.566 -0.424 l 0 2.34 l -0.586 0 l 0 -6.875 l 0.586 -0.109 z m -3.533 0.613 c 0.168 0 0.332 0.011 0.494 0.035 c 0.162 0.024 0.311 0.058 0.449 0.1 c 0.144 0.036 0.275 0.077 0.389 0.125 c 0.12 0.048 0.219 0.1 0.297 0.154 l -0.217 0.512 c -0.174 -0.12 -0.387 -0.215 -0.639 -0.287 c -0.246 -0.072 -0.513 -0.107 -0.801 -0.107 c -0.198 0 -0.381 0.02 -0.549 0.063 c -0.162 0.036 -0.304 0.099 -0.424 0.189 c -0.12 0.084 -0.215 0.19 -0.287 0.322 c -0.066 0.132 -0.1 0.293 -0.1 0.479 c 0 0.192 0.035 0.354 0.107 0.486 c 0.072 0.132 0.171 0.246 0.297 0.342 c 0.132 0.096 0.285 0.182 0.459 0.26 c 0.174 0.078 0.364 0.16 0.568 0.244 c 0.246 0.102 0.475 0.203 0.691 0.305 c 0.222 0.102 0.414 0.223 0.576 0.361 c 0.162 0.138 0.293 0.306 0.389 0.504 c 0.096 0.198 0.143 0.441 0.143 0.729 c 0 0.564 -0.198 0.988 -0.594 1.27 c -0.39 0.282 -0.92 0.422 -1.592 0.422 c -0.24 0 -0.46 -0.015 -0.658 -0.045 c -0.198 -0.03 -0.375 -0.065 -0.531 -0.107 c -0.156 -0.048 -0.287 -0.097 -0.395 -0.145 c -0.108 -0.048 -0.194 -0.089 -0.254 -0.125 l 0.199 -0.531 c 0.06 0.036 0.14 0.077 0.242 0.125 c 0.102 0.048 0.223 0.097 0.361 0.145 c 0.138 0.042 0.293 0.077 0.467 0.107 c 0.174 0.03 0.366 0.045 0.576 0.045 c 0.486 0 0.865 -0.086 1.135 -0.26 c 0.27 -0.18 0.404 -0.469 0.404 -0.865 c 0 -0.228 -0.045 -0.416 -0.135 -0.566 c -0.084 -0.156 -0.198 -0.285 -0.342 -0.387 c -0.144 -0.108 -0.31 -0.198 -0.496 -0.27 c -0.186 -0.078 -0.38 -0.16 -0.584 -0.244 c -0.258 -0.102 -0.489 -0.206 -0.693 -0.314 c -0.204 -0.108 -0.377 -0.227 -0.521 -0.359 c -0.144 -0.138 -0.256 -0.295 -0.334 -0.469 c -0.072 -0.174 -0.107 -0.377 -0.107 -0.611 c 0 -0.534 0.177 -0.939 0.531 -1.215 c 0.354 -0.276 0.847 -0.414 1.477 -0.414 z m 8.07 4.03 c 0.203 0 0.375 0.025 0.52 0.076 c 0.148 0.051 0.272 0.123 0.369 0.217 c 0.098 0.09 0.17 0.199 0.217 0.328 c 0.047 0.125 0.07 0.26 0.07 0.408 c 0 0.238 -0.065 0.434 -0.193 0.586 c -0.125 0.148 -0.287 0.256 -0.486 0.322 c 0.109 0.027 0.215 0.068 0.316 0.127 c 0.105 0.055 0.199 0.127 0.281 0.217 c 0.082 0.086 0.149 0.192 0.199 0.316 c 0.051 0.125 0.076 0.272 0.076 0.439 c 0 0.172 -0.031 0.328 -0.094 0.473 c -0.059 0.144 -0.149 0.272 -0.27 0.381 c -0.117 0.105 -0.268 0.19 -0.451 0.252 c -0.183 0.059 -0.397 0.088 -0.643 0.088 c -0.129 0 -0.248 -0.01 -0.357 -0.029 c -0.105 -0.016 -0.199 -0.035 -0.281 -0.059 c -0.082 -0.023 -0.152 -0.047 -0.211 -0.07 c -0.055 -0.023 -0.096 -0.043 -0.123 -0.059 l 0.1 -0.34 c 0.023 0.016 0.063 0.035 0.117 0.059 c 0.055 0.023 0.119 0.047 0.193 0.07 c 0.078 0.019 0.164 0.037 0.258 0.053 c 0.098 0.016 0.203 0.023 0.316 0.023 c 0.371 0 0.635 -0.076 0.795 -0.229 c 0.16 -0.156 0.24 -0.364 0.24 -0.625 c 0 -0.172 -0.033 -0.315 -0.1 -0.428 c -0.062 -0.113 -0.151 -0.203 -0.264 -0.27 c -0.109 -0.07 -0.239 -0.119 -0.387 -0.146 c -0.144 -0.031 -0.297 -0.047 -0.461 -0.047 l -0.059 0 l 0 -0.314 l 0.135 0 c 0.105 0 0.213 -0.01 0.322 -0.029 c 0.113 -0.023 0.213 -0.065 0.303 -0.123 c 0.094 -0.059 0.17 -0.137 0.229 -0.234 c 0.062 -0.098 0.094 -0.223 0.094 -0.375 c 0 -0.129 -0.022 -0.236 -0.064 -0.326 c -0.043 -0.094 -0.102 -0.168 -0.176 -0.223 c -0.07 -0.055 -0.154 -0.094 -0.252 -0.117 c -0.094 -0.027 -0.192 -0.041 -0.297 -0.041 c -0.211 0 -0.375 0.029 -0.492 0.088 c -0.117 0.059 -0.213 0.113 -0.287 0.164 l -0.164 -0.299 c 0.039 -0.027 0.088 -0.059 0.146 -0.094 c 0.062 -0.035 0.135 -0.068 0.217 -0.1 c 0.082 -0.031 0.172 -0.057 0.27 -0.076 c 0.101 -0.023 0.211 -0.035 0.328 -0.035 z" style="fill:#ececec;fill-opacity:1"/>
</svg>
